X:2954
T:James Kelly's Donegal Reel
O:england
M:4/4
L:1/8
S:James Kelly, Dublin (fiddle)
R:Reel
H:Played after Miss Ramsey
D:Fiddle Concert, Milltown Malbay 1983
K:D
DCDE FEFA | (3Bcd AF GBAG | FEED EFGB | AFBF GFEF | DCDE FEFA | dcdA Bcde |\
fgfe dBAG |1 FDEF DGFE :|2 FDEF D2 (3ABc |: defg afde | fdfg bagf | e=cef g3a |\
gece g2fe | defg afde | fdfg a2ge | fgfe dBAG |1 FDEF D2 (3ABc :|2 FDEF DGFE ||


